src/pos-icons/file-cancel.svg

<svg height="24" viewBox="0 0 24 24" width="24" xmlns="http://www.w3.org/2000/svg"><path d="m13 9h5.5l-5.5-5.5zm-7-7h8l6 6v12a2 2 0 0 1 -2 2h-12c-1.11 0-2-.9-2-2v-16c0-1.11.89-2 2-2m4.5 9c-2.5 0-4.5 2-4.5 4.5s2 4.5 4.5 4.5 4.5-2 4.5-4.5-2-4.5-4.5-4.5m0 1.5a3 3 0 0 1 3 3c0 .56-.15 1.08-.42 1.5l-4.08-4.08c.42-.27.94-.42 1.5-.42m-3 3c0-.56.15-1.08.42-1.5l4.08 4.08c-.42.27-.94.42-1.5.42a3 3 0 0 1 -3-3z"/></svg>

<?xml version="1.0" encoding="UTF-8"?><!DOCTYPE svg PUBLIC "-//W3C//DTD SVG 1.1//EN" "http://www.w3.org/Graphics/SVG/1.1/DTD/svg11.dtd"><svg xmlns="http://www.w3.org/2000/svg" xmlns:xlink="http://www.w3.org/1999/xlink" version="1.1" id="mdi-file-cancel" width="24" height="24" viewBox="0 0 24 24"><path d="M13,9H18.5L13,3.5V9M6,2H14L20,8V20A2,2 0 0,1 18,22H6C4.89,22 4,21.1 4,20V4C4,2.89 4.89,2 6,2M10.5,11C8,11 6,13 6,15.5C6,18 8,20 10.5,20C13,20 15,18 15,15.5C15,13 13,11 10.5,11M10.5,12.5A3,3 0 0,1 13.5,15.5C13.5,16.06 13.35,16.58 13.08,17L9,12.92C9.42,12.65 9.94,12.5 10.5,12.5M7.5,15.5C7.5,14.94 7.65,14.42 7.92,14L12,18.08C11.58,18.35 11.06,18.5 10.5,18.5A3,3 0 0,1 7.5,15.5Z" /></svg>
